img/undraw/girl-phone.svg

<svg id="b445ccda-90ce-4f31-a390-0b1031309e06" data-name="Layer 1" xmlns="http://www.w3.org/2000/svg" width="888" height="769.42842" viewBox="0 0 888 769.42842"><title>proud_self</title><path d="M205.23105,824.37209S190.82909,797.78892,156,809.28363Z" transform="translate(-156 -65.28579)" fill="#e6e6e6"/><path d="M206.09945,823.72248s-17.81085-22.63935,7.8964-50.88226Z" transform="translate(-156 -65.28579)" fill="#e6e6e6"/><rect y="757.41185" width="888" height="2" fill="#3f3d56"/><path d="M829.87192,578.32829l19.22716,74.77229s.71212,52.69667,4.98482,73.34807,18.515,70.49959,18.515,70.49959l17.09081,2.84847-3.56058-69.78748s0-42.01491-3.56059-51.27243-10.68175-103.9691-10.68175-103.9691Z" transform="translate(-156 -65.28579)" fill="#fbbebe"/><path d="M828.87192,573.32829l19.22716,74.77229s.71212,52.69667,4.98482,73.34807,18.515,70.49959,18.515,70.49959l17.09081,2.84847-3.56058-69.78748s0-42.01491-3.56059-51.27243-10.68175-103.9691-10.68175-103.9691Z" transform="translate(-156 -65.28579)" opacity="0.1"/><path d="M883.17876,264.92844h-.00006c-23.737,0-42.97956,21.35506-42.97956,47.69786v33.46881h10.29347l5.95933-12.40046-1.48985,12.40046h66.16248l5.41758-11.27315-1.35438,11.27315H932.637v-26.279C932.637,289.50251,910.49376,264.92844,883.17876,264.92844Z" transform="translate(-156 -65.28579)" fill="#2f2e41"/><path d="M811.71293,566.57836s-8.5454,36.318,2.84847,39.87855,8.5454-39.87855,8.5454-39.87855Z" transform="translate(-156 -65.28579)" fill="#fbbebe"/><polygon points="669.955 316.854 664.258 323.263 665.683 446.46 652.864 504.853 681.349 507.702 695.591 390.202 691.319 330.384 669.955 316.854" fill="#d0cde1"/><polygon points="669.697 316.854 664 323.263 665.424 446.46 652.606 504.853 681.091 507.702 695.333 390.202 691.06 330.384 669.697 316.854" opacity="0.1"/><circle cx="723.37605" cy="245.53549" r="30.5971" fill="#fbbebe"/><path d="M861.83371,329.17954s8.97515,46.50759,4.89554,51.40312,43.2439-8.97515,43.2439-8.97515-15.50253-31.821-7.34331-49.77128Z" transform="translate(-156 -65.28579)" fill="#fbbebe"/><path d="M939.18189,533.10885s8.54541,36.318-2.84847,39.87856-8.5454-39.87856-8.5454-39.87856Z" transform="translate(-156 -65.28579)" fill="#fbbebe"/><path d="M873.31106,569.78288s-12.106,72.63595-11.39387,83.3177,0,12.106,0,12.106-12.106,31.33316-15.66658,49.13608-11.39387,40.59068-11.39387,40.59068-9.25753,20.6514-1.42424,20.6514,18.515-2.84847,18.515-2.84847a36.36659,36.36659,0,0,1,7.83329-22.6713c8.5454-10.79821,34.18162-61.35852,34.18162-67.76757s4.2727-24.9241,4.2727-24.9241l16.37869-79.045Z" transform="translate(-156 -65.28579)" fill="#fbbebe"/><path d="M823.46286,521.35892s-12.106,61.24207-1.42423,62.66631,25.63621-9.25753,44.86338,2.84846,51.27243,9.25753,51.27243,9.25753,22.07563-56.25725,2.13635-69.78748S823.46286,521.35892,823.46286,521.35892Z" transform="translate(-156 -65.28579)" fill="#2f2e41"/><path d="M836.99309,767.03932a18.96893,18.96893,0,0,1,9.96964-1.42423,13.00477,13.00477,0,0,0,9.25752-2.13636s-5.69694,20.6514-4.98482,28.48469-2.13635,41.30279-17.09081,37.74221-19.22716-14.24235-13.53023-32.75739,4.27271-39.87856,4.27271-39.87856,10.39292-10.735,12.31763-9.28416S836.99309,767.03932,836.99309,767.03932Z" transform="translate(-156 -65.28579)" fill="#2f2e41"/><path d="M884.70493,793.38765s-7.12117-15.66657-15.66657-1.42423-9.25752,17.80293-9.25752,17.80293-24.212,22.07563-7.12118,24.212,30.621-.71212,30.621-4.2727,8.5454-2.84847,9.25752-5.69694-1.42423-29.1968-1.42423-29.1968Z" transform="translate(-156 -65.28579)" fill="#2f2e41"/><path d="M900.72758,352.94322h0s-29.90892,5.69693-33.4695,4.98482a17.67468,17.67468,0,0,0-2.42731-.25741A35.98843,35.98843,0,0,0,844.95339,362.6c-9.91657,5.76037-24.69505,16.01194-24.69505,25.94907,0,14.95446,19.22716,40.59068,19.22716,40.59068s-17.80293,61.24207-16.3787,66.939-10.68175,24.9241-2.84846,31.33316,82.60558,0,96.1358,6.409,7.12118-85.454,7.12118-85.454,36.318-83.3177,17.80292-91.151c-5.99113-2.53471-11.16208-4.47292-15.41633-5.93527A32.58858,32.58858,0,0,0,900.72758,352.94322Z" transform="translate(-156 -65.28579)" fill="#d0cde1"/><path d="M928.50014,357.92805l16.33992,2.7003S952,367.89769,952,371.45827s-1.42423,157.37788-3.56059,162.3627-25.63621,2.84847-25.63621,2.84847l4.2727-87.59041Z" transform="translate(-156 -65.28579)" fill="#d0cde1"/><path d="M895.39707,278.06762a22.54075,22.54075,0,0,0-17.78531-9.076H876.768c-16.26936,0-29.45821,14.72189-29.45821,32.88229v.00007h5.45143l.8804-6.70123,1.29083,6.70123h32.33213l2.70882-5.66937-.67722,5.66937h6.36065q4.45215,22.11055-12.794,44.22111H893.698l5.41758-11.33875-1.35438,11.33875h20.65458l4.0632-26.07918C922.479,300.485,911.13093,283.92323,895.39707,278.06762Z" transform="translate(-156 -65.28579)" fill="#2f2e41"/><circle cx="745.3356" cy="199.43012" r="16.09784" fill="#2f2e41"/><path d="M719.68725,245.52921h-4.16748V131.36247A66.0766,66.0766,0,0,0,649.443,65.28579H407.56544a66.07661,66.07661,0,0,0-66.07681,66.07668V757.69009a66.07661,66.07661,0,0,0,66.07681,66.07668H649.443a66.0766,66.0766,0,0,0,66.0768-66.07668V326.795h4.16748Z" transform="translate(-156 -65.28579)" fill="#3f3d56"/><path d="M652.10921,82.47665h-31.573a23.44384,23.44384,0,0,1-21.70579,32.298H460.26173a23.44384,23.44384,0,0,1-21.70578-32.298H409.06667a49.34527,49.34527,0,0,0-49.34534,49.34522V757.23063a49.34529,49.34529,0,0,0,49.34534,49.34528H652.10921a49.3453,49.3453,0,0,0,49.34535-49.34528V131.82187A49.34528,49.34528,0,0,0,652.10921,82.47665Z" transform="translate(-156 -65.28579)" opacity="0.2"/><rect x="594.72404" y="490.14852" width="46.82432" height="11.27252" transform="translate(1080.27241 926.28378) rotate(-180)" fill="#a1d900"/><rect x="432.57316" y="490.14852" width="16.47522" height="11.27252" transform="translate(725.62155 926.28378) rotate(-180)" fill="#a1d900"/><rect x="399.62272" y="490.14852" width="16.47522" height="11.27252" transform="translate(659.72066 926.28378) rotate(-180)" fill="#a1d900"/><rect x="466.39073" y="490.14852" width="111.85809" height="11.27252" transform="translate(888.63955 926.28378) rotate(-180)" fill="#a1d900"/><rect x="491.53712" y="562.98635" width="16.47522" height="11.27252" transform="translate(843.54946 1071.95943) rotate(-180)" fill="#a1d900"/><rect x="458.58667" y="562.98635" width="16.47522" height="11.27252" transform="translate(777.64857 1071.95943) rotate(-180)" fill="#a1d900"/><rect x="525.35468" y="562.98635" width="111.85809" height="11.27252" transform="translate(1006.56746 1071.95943) rotate(-180)" fill="#a1d900"/><rect x="460.32091" y="515.29492" width="46.82432" height="11.27252" transform="translate(811.46614 976.57656) rotate(-180)" fill="#a1d900"/><rect x="397.02137" y="515.29492" width="46.82432" height="11.27252" transform="translate(684.86705 976.57656) rotate(-180)" fill="#a1d900"/><rect x="651.08665" y="515.29492" width="16.47522" height="11.27252" transform="translate(1162.64852 976.57656) rotate(-180)" fill="#a1d900"/><rect x="522.75333" y="515.29492" width="111.85809" height="11.27252" transform="translate(1001.36476 976.57656) rotate(-180)" fill="#a1d900"/><rect x="401.43801" y="474.2884" width="46.82432" height="11.27252" fill="#a1d900"/><rect x="464.73756" y="474.2884" width="46.82432" height="11.27252" fill="#a1d900"/><rect x="241.02137" y="474.2884" width="16.47522" height="11.27252" fill="#a1d900"/><rect x="273.97181" y="474.2884" width="111.85809" height="11.27252" fill="#a1d900"/><circle cx="374.77344" cy="240.56197" r="89.47009" fill="#a1d900"/><circle cx="368.38272" cy="243.75733" r="28.75824" fill="#fff"/><path d="M525.25679,310.76468c-1.78934-2.75412-.88507-6.49892-2.13992-9.53409-1.97051-4.76617-8.0947-5.88271-13.23379-6.31757a39.44537,39.44537,0,0,0-10.25356.02744,9.84114,9.84114,0,0,0-7.11128,5.15594c-.76034,1.52487-.56847-3.25281-.08138-9.38588a29.64587,29.64587,0,0,1,22.73586-26.52212q.10891-.02559.21586-.05027c6.257-1.44342,12.7086-2.50565,19.08605-1.75642s12.73421,3.5022,16.71428,8.54129c1.81907,2.30308,3.10534,5.01894,5.136,7.13785,3.56778,3.72291,8.85693,5.07759,13.71544,6.805,5.49473,1.95361,10.83631,4.63358,15.039,8.67659s7.18163,9.58322,7.26964,15.41425c.10265,6.80181-4.22413,13.82131-11.19609,15.16233a7.82742,7.82742,0,0,0-3.34329,1.44279c-6.65713,5.16169.93691,10.56508.88428,16.376-.04392,4.84878-5.44177,8.009-10.28547,8.235A19.51578,19.51578,0,0,1,548.971,334.73115c-.7302-3.97923-.16634-8.06621.30871-12.0839.54378-4.599-9.36031-15.42819-2.81794-7.49069a11.38347,11.38347,0,0,1,2.50128,5.26665c1.08888,6.34106-4.68154,8.474-8.32041,11.98758a15.07793,15.07793,0,0,0-3.64985,15.5201,17.38325,17.38325,0,0,1-3.15935-21.95171c1.17219-1.79771,2.68244-3.36167,3.794-5.19747,1.73452-2.86459,2.21286-9.09531-2.642-8.92421C531.52012,311.97963,527.92047,314.86456,525.25679,310.76468Z" transform="translate(-156 -65.28579)" fill="#2f2e41"/></svg>

<?xml version="1.0" encoding="UTF-8" standalone="no"?>
<!DOCTYPE svg PUBLIC "-//W3C//DTD SVG 1.1//EN" "http://www.w3.org/Graphics/SVG/1.1/DTD/svg11.dtd">
<svg width="100%" height="100%" viewBox="0 0 888 770" version="1.1" xmlns="http://www.w3.org/2000/svg" xmlns:xlink="http://www.w3.org/1999/xlink" xml:space="preserve" xmlns:serif="http://www.serif.com/" style="fill-rule:evenodd;clip-rule:evenodd;stroke-linejoin:round;stroke-miterlimit:2;">
    <g transform="matrix(1,0,0,1,-156,-65.2858)">
        <path d="M205.231,824.372C205.231,824.372 190.829,797.789 156,809.284L205.231,824.372Z" style="fill:rgb(230,230,230);fill-rule:nonzero;"/>
    </g>
    <g transform="matrix(1,0,0,1,-156,-65.2858)">
        <path d="M206.099,823.722C206.099,823.722 188.289,801.083 213.996,772.84L206.099,823.722Z" style="fill:rgb(230,230,230);fill-rule:nonzero;"/>
    </g>
    <rect x="0" y="757.412" width="888" height="2" style="fill:rgb(63,61,86);"/>
    <g transform="matrix(1,0,0,1,-156,-65.2858)">
        <path d="M829.872,578.328L849.099,653.101C849.099,653.101 849.811,705.797 854.084,726.449C858.357,747.1 872.599,796.948 872.599,796.948L889.69,799.797L886.129,730.009C886.129,730.009 886.129,687.994 882.569,678.737C879.008,669.479 871.887,574.768 871.887,574.768L829.872,578.328Z" style="fill:rgb(251,190,190);fill-rule:nonzero;"/>
    </g>
    <g transform="matrix(1,0,0,1,-156,-65.2858)">
        <path d="M828.872,573.328L848.099,648.101C848.099,648.101 848.811,700.797 853.084,721.449C857.357,742.1 871.599,791.948 871.599,791.948L888.69,794.797L885.129,725.009C885.129,725.009 885.129,682.994 881.569,673.737C878.008,664.479 870.887,569.768 870.887,569.768L828.872,573.328Z" style="fill-opacity:0.1;fill-rule:nonzero;"/>
    </g>
    <g transform="matrix(1,0,0,1,-156,-65.2858)">
        <path d="M883.179,264.928L883.179,264.928C859.442,264.928 840.199,286.284 840.199,312.626L840.199,346.095L850.493,346.095L856.452,333.695L854.962,346.095L921.125,346.095L926.542,334.822L925.188,346.095L932.637,346.095L932.637,319.816C932.637,289.503 910.494,264.928 883.179,264.928Z" style="fill:rgb(47,46,65);fill-rule:nonzero;"/>
    </g>
    <g transform="matrix(1,0,0,1,-156,-65.2858)">
        <path d="M811.713,566.578C811.713,566.578 803.168,602.896 814.561,606.457C825.955,610.017 823.107,566.578 823.107,566.578L811.713,566.578Z" style="fill:rgb(251,190,190);fill-rule:nonzero;"/>
    </g>
    <path d="M669.955,316.854L664.258,323.263L665.683,446.46L652.864,504.853L681.349,507.702L695.591,390.202L691.319,330.384L669.955,316.854Z" style="fill:rgb(208,205,225);fill-rule:nonzero;"/>
    <path d="M669.697,316.854L664,323.263L665.424,446.46L652.606,504.853L681.091,507.702L695.333,390.202L691.06,330.384L669.697,316.854Z" style="fill-opacity:0.1;fill-rule:nonzero;"/>
    <circle cx="723.376" cy="245.535" r="30.597" style="fill:rgb(251,190,190);"/>
    <g transform="matrix(1,0,0,1,-156,-65.2858)">
        <path d="M861.834,329.18C861.834,329.18 870.809,375.687 866.729,380.583C862.65,385.478 909.973,371.608 909.973,371.608C909.973,371.608 894.471,339.787 902.63,321.836L861.834,329.18Z" style="fill:rgb(251,190,190);fill-rule:nonzero;"/>
    </g>
    <g transform="matrix(1,0,0,1,-156,-65.2858)">
        <path d="M939.182,533.109C939.182,533.109 947.727,569.427 936.333,572.987C924.94,576.548 927.788,533.109 927.788,533.109L939.182,533.109Z" style="fill:rgb(251,190,190);fill-rule:nonzero;"/>
    </g>
    <g transform="matrix(1,0,0,1,-156,-65.2858)">
        <path d="M873.311,569.783C873.311,569.783 861.205,642.419 861.917,653.101C862.629,663.782 861.917,665.207 861.917,665.207C861.917,665.207 849.811,696.54 846.251,714.343C842.69,732.146 834.857,754.933 834.857,754.933C834.857,754.933 825.599,775.585 833.433,775.585C841.266,775.585 851.948,772.736 851.948,772.736C851.92,764.512 854.682,756.517 859.781,750.065C868.326,739.267 893.962,688.706 893.962,682.297C893.962,675.888 898.235,657.373 898.235,657.373L914.614,578.328L873.311,569.783Z" style="fill:rgb(251,190,190);fill-rule:nonzero;"/>
    </g>
    <g transform="matrix(1,0,0,1,-156,-65.2858)">
        <path d="M823.463,521.359C823.463,521.359 811.357,582.601 822.039,584.025C832.72,585.449 847.675,574.768 866.902,586.874C886.129,598.98 918.174,596.131 918.174,596.131C918.174,596.131 940.25,539.874 920.311,526.344C900.372,512.814 823.463,521.359 823.463,521.359Z" style="fill:rgb(47,46,65);fill-rule:nonzero;"/>
    </g>
    <g transform="matrix(1,0,0,1,-156,-65.2858)">
        <path d="M836.993,767.039C840.127,765.675 843.572,765.183 846.963,765.615C850.207,766.096 853.515,765.332 856.22,763.479C858.925,761.625 850.523,784.13 851.235,791.963C851.948,799.797 849.099,833.266 834.145,829.706C819.19,826.145 814.917,815.463 820.614,796.948C826.311,778.433 824.887,757.07 824.887,757.07C824.887,757.07 835.28,746.335 837.205,747.786C839.129,749.236 836.993,767.039 836.993,767.039Z" style="fill:rgb(47,46,65);fill-rule:nonzero;"/>
    </g>
    <g transform="matrix(1,0,0,1,-156,-65.2858)">
        <path d="M884.705,793.388C884.705,793.388 877.584,777.721 869.038,791.963C860.493,806.206 859.781,809.766 859.781,809.766C859.781,809.766 835.569,831.842 852.66,833.978C869.75,836.115 883.281,833.266 883.281,829.706C883.281,826.145 891.826,826.857 892.538,824.009C893.25,821.16 891.114,794.812 891.114,794.812L884.705,793.388Z" style="fill:rgb(47,46,65);fill-rule:nonzero;"/>
    </g>
    <g transform="matrix(1,0,0,1,-156,-65.2858)">
        <path d="M900.728,352.943C900.728,352.943 870.819,358.64 867.258,357.928C866.456,357.786 865.645,357.7 864.831,357.671C857.868,357.354 850.961,359.067 844.953,362.6C835.037,368.36 820.258,378.612 820.258,388.549C820.258,403.504 839.486,429.14 839.486,429.14C839.486,429.14 821.683,490.382 823.107,496.079C824.531,501.776 812.425,521.003 820.258,527.412C828.092,533.821 902.864,527.412 916.394,533.821C929.924,540.23 923.515,448.367 923.515,448.367C923.515,448.367 959.833,365.049 941.318,357.216C935.327,354.681 930.156,352.743 925.902,351.281C917.631,348.434 908.552,349.033 900.728,352.943Z" style="fill:rgb(208,205,225);fill-rule:nonzero;"/>
    </g>
    <g transform="matrix(1,0,0,1,-156,-65.2858)">
        <path d="M928.5,357.928L944.84,360.628C944.84,360.628 952,367.898 952,371.458C952,375.019 950.576,528.836 948.439,533.821C946.303,538.806 922.803,536.669 922.803,536.669L927.076,449.079L928.5,357.928Z" style="fill:rgb(208,205,225);fill-rule:nonzero;"/>
    </g>
    <g transform="matrix(1,0,0,1,-156,-65.2858)">
        <path d="M895.397,278.068C891.208,272.442 884.625,269.083 877.612,268.992L876.768,268.992C860.499,268.992 847.31,283.714 847.31,301.874L847.31,301.874L852.761,301.874L853.642,295.173L854.932,301.874L887.265,301.874L889.973,296.205L889.296,301.874L895.657,301.874C898.625,316.614 894.36,331.355 882.863,346.095L893.698,346.095L899.116,334.756L897.761,346.095L918.416,346.095L922.479,320.016C922.479,300.485 911.131,283.923 895.397,278.068Z" style="fill:rgb(47,46,65);fill-rule:nonzero;"/>
    </g>
    <circle cx="745.336" cy="199.43" r="16.098" style="fill:rgb(47,46,65);"/>
    <g transform="matrix(1,0,0,1,-156,-65.2858)">
        <path d="M719.687,245.529L715.52,245.529L715.52,131.362C715.52,95.114 685.692,65.286 649.443,65.286L407.565,65.286C371.317,65.286 341.489,95.114 341.489,131.362L341.489,757.69C341.489,793.939 371.317,823.767 407.565,823.767L649.443,823.767C685.692,823.767 715.52,793.939 715.52,757.69L715.52,326.795L719.687,326.795L719.687,245.529Z" style="fill:rgb(63,61,86);fill-rule:nonzero;"/>
    </g>
    <g transform="matrix(1,0,0,1,-156,-65.2858)">
        <path d="M652.109,82.477L620.536,82.477C621.683,85.288 622.273,88.295 622.273,91.331C622.273,104.191 611.691,114.774 598.83,114.775L460.262,114.775C447.401,114.774 436.82,104.191 436.82,91.331C436.82,88.295 437.409,85.288 438.556,82.477L409.067,82.477C381.997,82.477 359.721,104.752 359.721,131.822L359.721,757.231C359.721,784.301 381.997,806.576 409.067,806.576L652.109,806.576C679.179,806.576 701.455,784.301 701.455,757.231L701.455,131.822C701.455,104.752 679.179,82.477 652.109,82.477Z" style="fill-opacity:0.2;fill-rule:nonzero;"/>
    </g>
    <g transform="matrix(-1,7.65714e-16,-7.65714e-16,-1,1080.27,926.284)">
        <rect x="594.724" y="490.149" width="46.824" height="11.273" style="fill:rgb(94,218,18);"/>
    </g>
    <g transform="matrix(-1,7.65714e-16,-7.65714e-16,-1,725.622,926.284)">
        <rect x="432.573" y="490.149" width="16.475" height="11.273" style="fill:rgb(94,218,18);"/>
    </g>
    <g transform="matrix(-1,7.65714e-16,-7.65714e-16,-1,659.721,926.284)">
        <rect x="399.623" y="490.149" width="16.475" height="11.273" style="fill:rgb(94,218,18);"/>
    </g>
    <g transform="matrix(-1,7.65714e-16,-7.65714e-16,-1,888.64,926.284)">
        <rect x="466.391" y="490.149" width="111.858" height="11.273" style="fill:rgb(94,218,18);"/>
    </g>
    <g transform="matrix(-1,7.65714e-16,-7.65714e-16,-1,843.549,1071.96)">
        <rect x="491.537" y="562.986" width="16.475" height="11.273" style="fill:rgb(94,218,18);"/>
    </g>
    <g transform="matrix(-1,7.65714e-16,-7.65714e-16,-1,777.649,1071.96)">
        <rect x="458.587" y="562.986" width="16.475" height="11.273" style="fill:rgb(94,218,18);"/>
    </g>
    <g transform="matrix(-1,7.65714e-16,-7.65714e-16,-1,1006.57,1071.96)">
        <rect x="525.355" y="562.986" width="111.858" height="11.273" style="fill:rgb(94,218,18);"/>
    </g>
    <g transform="matrix(-1,7.65714e-16,-7.65714e-16,-1,811.466,976.577)">
        <rect x="460.321" y="515.295" width="46.824" height="11.273" style="fill:rgb(94,218,18);"/>
    </g>
    <g transform="matrix(-1,7.65714e-16,-7.65714e-16,-1,684.867,976.577)">
        <rect x="397.021" y="515.295" width="46.824" height="11.273" style="fill:rgb(94,218,18);"/>
    </g>
    <g transform="matrix(-1,7.65714e-16,-7.65714e-16,-1,1162.65,976.577)">
        <rect x="651.087" y="515.295" width="16.475" height="11.273" style="fill:rgb(94,218,18);"/>
    </g>
    <g transform="matrix(-1,7.65714e-16,-7.65714e-16,-1,1001.36,976.577)">
        <rect x="522.753" y="515.295" width="111.858" height="11.273" style="fill:rgb(94,218,18);"/>
    </g>
    <rect x="401.438" y="474.288" width="46.824" height="11.273" style="fill:rgb(94,218,18);"/>
    <rect x="464.738" y="474.288" width="46.824" height="11.273" style="fill:rgb(94,218,18);"/>
    <rect x="241.021" y="474.288" width="16.475" height="11.273" style="fill:rgb(94,218,18);"/>
    <rect x="273.972" y="474.288" width="111.858" height="11.273" style="fill:rgb(94,218,18);"/>
    <circle cx="374.773" cy="240.562" r="89.47" style="fill:rgb(94,218,18);"/>
    <circle cx="368.383" cy="243.757" r="28.758" style="fill:white;"/>
    <g transform="matrix(1,0,0,1,-156,-65.2858)">
        <path d="M525.257,310.765C523.467,308.011 524.372,304.266 523.117,301.231C521.146,296.464 515.022,295.348 509.883,294.913C506.479,294.476 503.032,294.485 499.63,294.94C496.583,295.447 493.947,297.359 492.518,300.096C491.758,301.621 491.95,296.844 492.437,290.711C493.446,277.904 502.67,267.143 515.173,264.188C515.245,264.171 515.317,264.155 515.389,264.138C521.646,262.695 528.097,261.632 534.475,262.382C540.852,263.131 547.209,265.884 551.189,270.923C553.008,273.226 554.294,275.942 556.325,278.061C559.893,281.784 565.182,283.138 570.04,284.866C575.535,286.819 580.877,289.499 585.079,293.542C589.282,297.585 592.261,303.126 592.349,308.957C592.452,315.758 588.125,322.778 581.153,324.119C579.941,324.33 578.795,324.825 577.81,325.562C571.152,330.724 578.747,336.127 578.694,341.938C578.65,346.787 573.252,349.947 568.408,350.173C559.105,350.34 550.912,343.832 548.971,334.731C548.241,330.752 548.805,326.665 549.28,322.647C549.823,318.048 539.919,307.219 546.462,315.157C547.739,316.665 548.601,318.48 548.963,320.423C550.052,326.764 544.282,328.897 540.643,332.411C536.573,336.459 535.154,342.493 536.993,347.931C530.827,342.345 529.493,333.077 533.833,325.979C535.006,324.181 536.516,322.618 537.627,320.782C539.362,317.917 539.84,311.686 534.985,311.858C531.52,311.98 527.92,314.865 525.257,310.765Z" style="fill:rgb(47,46,65);fill-rule:nonzero;"/>
    </g>
</svg>
